page/img/LED_BLUE.svg

<?xml version="1.0" encoding="UTF-8" standalone="no"?>
<svg
   xmlns:dc="http://purl.org/dc/elements/1.1/"
   xmlns:cc="http://creativecommons.org/ns#"
   xmlns:rdf="http://www.w3.org/1999/02/22-rdf-syntax-ns#"
   xmlns:svg="http://www.w3.org/2000/svg"
   xmlns="http://www.w3.org/2000/svg"
   xmlns:xlink="http://www.w3.org/1999/xlink"
   xmlns:sodipodi="http://sodipodi.sourceforge.net/DTD/sodipodi-0.dtd"
   xmlns:inkscape="http://www.inkscape.org/namespaces/inkscape"
   version="1.1"
   preserveAspectRatio="xMidYMid meet"
   viewBox="0 0 128 128"
   width="128"
   height="128"
   id="svg2"
   inkscape:version="0.91 r13725"
   sodipodi:docname="LED_BLUEbig.svg">
  <metadata
     id="metadata27">
    <rdf:RDF>
      <cc:Work
         rdf:about="">
        <dc:format>image/svg+xml</dc:format>
        <dc:type
           rdf:resource="http://purl.org/dc/dcmitype/StillImage" />
        <dc:title></dc:title>
      </cc:Work>
    </rdf:RDF>
  </metadata>
  <sodipodi:namedview
     pagecolor="#ffffff"
     bordercolor="#666666"
     borderopacity="1"
     objecttolerance="10"
     gridtolerance="10"
     guidetolerance="10"
     inkscape:pageopacity="0"
     inkscape:pageshadow="2"
     inkscape:window-width="1668"
     inkscape:window-height="888"
     id="namedview25"
     showgrid="false"
     inkscape:zoom="3.6875"
     inkscape:cx="32"
     inkscape:cy="50.068977"
     inkscape:window-x="77"
     inkscape:window-y="24"
     inkscape:window-maximized="0"
     inkscape:current-layer="svg2" />
  <defs
     id="defs4">
    <path
       d="m 47.08,31.52 c 0,9.79 -6.36,17.75 -14.19,17.75 -7.83,0 -14.19,-7.96 -14.19,-17.75 0,-9.8 6.36,-17.75 14.19,-17.75 7.83,0 14.19,7.95 14.19,17.75 z"
       id="g0"
       inkscape:connector-curvature="0" />
    <path
       d="m 18.7,31.52 28.38,0 0,17.75 -28.38,0 0,-17.75 z"
       id="g1"
       inkscape:connector-curvature="0" />
    <path
       d="m 50.45,43.14 c 1.11,0 2,0.9 2,2 0,0.83 0,1.3 0,2.13 0,1.1 -0.89,2 -2,2 -7.42,0 -27.7,0 -35.12,0 -1.11,0 -2,-0.9 -2,-2 0,-0.83 0,-1.3 0,-2.13 0,-1.1 0.89,-2 2,-2 7.42,0 27.7,0 35.12,0 z"
       id="g2"
       inkscape:connector-curvature="0" />
  </defs>
  <g
     id="g9"
     transform="matrix(3.1281758,0,0,3.2229649,-38.131295,-37.661074)">
    <g
       id="g11">
      <g
         id="g13">
        <use
           xlink:href="#g0"
           id="use15"
           style="opacity:1;fill:#0000ff;fill-opacity:1"
           x="0"
           y="0"
           width="100%"
           height="100%" />
      </g>
      <g
         id="g17">
        <use
           xlink:href="#g1"
           id="use19"
           style="opacity:1;fill:#0000ff;fill-opacity:1"
           x="0"
           y="0"
           width="100%"
           height="100%" />
      </g>
      <g
         id="g21">
        <use
           xlink:href="#g2"
           id="use23"
           style="opacity:1;fill:#0000ff;fill-opacity:1"
           x="0"
           y="0"
           width="100%"
           height="100%" />
      </g>
    </g>
  </g>
</svg>

<?xml version="1.0" encoding="UTF-8" standalone="no"?>
<!DOCTYPE svg PUBLIC "-//W3C//DTD SVG 1.1//EN" "http://www.w3.org/Graphics/SVG/1.1/DTD/svg11.dtd">
<svg version="1.1" xmlns="http://www.w3.org/2000/svg" xmlns:xlink="http://www.w3.org/1999/xlink" preserveAspectRatio="xMidYMid meet" viewBox="0 0 64 64" width="64" height="64"><defs><path d="M47.08 31.52C47.08 41.31 40.72 49.27 32.89 49.27C25.06 49.27 18.7 41.31 18.7 31.52C18.7 21.72 25.06 13.77 32.89 13.77C40.72 13.77 47.08 21.72 47.08 31.52Z" id="g0"></path><path d="M18.7 31.52L47.08 31.52L47.08 49.27L18.7 49.27L18.7 31.52Z" id="g1"></path><path d="M50.45 43.14C51.56 43.14 52.45 44.04 52.45 45.14C52.45 45.97 52.45 46.44 52.45 47.27C52.45 48.37 51.56 49.27 50.45 49.27C43.03 49.27 22.75 49.27 15.33 49.27C14.22 49.27 13.33 48.37 13.33 47.27C13.33 46.44 13.33 45.97 13.33 45.14C13.33 44.04 14.22 43.14 15.33 43.14C22.75 43.14 43.03 43.14 50.45 43.14Z" id="g2"></path></defs>
<g><g>
<g><use xlink:href="#g0" opacity="1" fill="#0000ff" fill-opacity="1"></use></g>
<g><use xlink:href="#g1" opacity="1" fill="#0000ff" fill-opacity="1"></use></g>
<g><use xlink:href="#g2" opacity="1" fill="#0000ff" fill-opacity="1"></use></g>
</g></g>
</svg>
